frontend/static/logo-vertical.svg

<?xml version="1.0" encoding="UTF-8"?>
<svg width="306px" height="277px" viewBox="0 0 306 277" version="1.1" xmlns="http://www.w3.org/2000/svg" xmlns:xlink="http://www.w3.org/1999/xlink">
    <!-- Generator: Sketch 49.3 (51167) - http://www.bohemiancoding.com/sketch -->
    <title>Vertical</title>
    <desc>Created with Sketch.</desc>
    <defs>
        <polygon id="path-1" points="73.4895094 169.094611 53.0648948 133.706136 32.6402802 169.094611 0 169.094611 53.0648948 77.1534348 106.12979 169.094611"></polygon>
        <filter x="0.0%" y="0.0%" width="100.0%" height="100.0%" filterUnits="objectBoundingBox" id="filter-2">
            <feOffset dx="0" dy="0" in="SourceAlpha" result="shadowOffsetOuter1"></feOffset>
            <feColorMatrix values="0 0 0 0 0   0 0 0 0 0   0 0 0 0 0  0 0 0 0.5 0" type="matrix" in="shadowOffsetOuter1"></feColorMatrix>
        </filter>
    </defs>
    <g id="Logo" stroke="none" stroke-width="1" fill="none" fill-rule="evenodd">
        <g id="Logo-2" transform="translate(-359.000000, -732.000000)">
            <g id="Vertical" transform="translate(359.000000, 731.000000)">
                <g id="Icon" transform="translate(64.000000, 0.000000)" fill-rule="nonzero">
                    <g id="Group" transform="translate(0.000000, 55.000000)">
                        <ellipse id="Oval" fill="#4A90E2" cx="33.3945055" cy="21.3250446" rx="20.9578115" ry="20.9328412"></ellipse>
                        <path d="M52.5530352,62.8607694 L66.8165969,48.5738262 L66.8165969,62.8607694 L52.5530352,62.8607694 Z M30.2004357,115.499952 L0,115.499952 L0,48.5738262 L30.2004357,78.823768 L30.2004357,115.499952 Z" id="Combined-Shape" fill="#4A90E2"></path>
                        <path d="M30.2004357,65.2954369 L30.2004357,100.899636 L2.98427949e-13,48.5738262 L20.5494843,48.5738262 L30.2004357,65.2954369 Z M38.0213403,62.8607694 L46.2671126,48.5738262 L66.8165969,48.5738262 L58.5707252,62.8607694 L38.0213403,62.8607694 Z" id="Combined-Shape" fill="#3A71B0"></path>
                    </g>
                    <g id="Group" transform="translate(113.000000, 55.000000)">
                        <ellipse id="Oval" fill="#FB8D20" cx="33.3945055" cy="21.3250446" rx="20.9578115" ry="20.9328412"></ellipse>
                        <path d="M36.2004357,79.2401749 L66.8165969,48.5738262 L66.8165969,115.499952 L36.2004357,115.499952 L36.2004357,79.2401749 Z M0,62.8607694 L0,48.5738262 L14.2635617,62.8607694 L0,62.8607694 Z" id="Combined-Shape" fill="#FB8D20"></path>
                        <path d="M28.7952566,62.8607694 L8.24587164,62.8607694 L2.98427949e-13,48.5738262 L20.5494843,48.5738262 L28.7952566,62.8607694 Z M36.2004357,66.0157389 L46.2671126,48.5738262 L66.8165969,48.5738262 L36.2004357,101.619929 L36.2004357,66.0157389 Z" id="Combined-Shape" fill="#C7701A"></path>
                    </g>
                    <g id="Group" transform="translate(36.635541, 0.901961)">
                        <ellipse id="Oval" fill="#4DBA87" cx="53.0429864" cy="33.8721605" rx="33.2888567" ry="33.2491946"></ellipse>
                        <polygon id="Shape" fill="#42B883" points="53.0648948 130.305316 0 77.1534348 0 183.457198 106.12979 183.457198 106.12979 77.1534348"></polygon>
                        <g id="path18" transform="translate(53.064895, 123.124023) rotate(-180.000000) translate(-53.064895, -123.124023) ">
                            <use fill="black" fill-opacity="1" filter="url(#filter-2)" xlink:href="#path-1"></use>
                            <use fill="#435466" fill-rule="evenodd" xlink:href="#path-1"></use>
                        </g>
                    </g>
                </g>
                <g id="Vuepeople" transform="translate(0.000000, 215.000000)">
                    <path d="M40.1599217,0 L23.676893,49.5821727 L16.4131854,49.5821727 L0,0 L10.0574413,0 L20.0450392,32.3119777 L30.0326371,0 L40.1599217,0 Z M70.4020888,49.5821727 L61.5319843,49.5821727 L61.5319843,46.2395543 C59.1573107,48.7465181 55.8048303,50 52.4523499,50 C48.8204961,50 45.8870757,48.816156 43.8616188,46.7966574 C40.9281984,43.8718663 40.1599217,40.45961 40.1599217,36.4902507 L40.1599217,13.3008357 L49.2395561,13.3008357 L49.2395561,35.2367688 C49.2395561,40.1810585 52.3825065,41.8523677 55.2460836,41.8523677 C58.1096606,41.8523677 61.3224543,40.1810585 61.3224543,35.2367688 L61.3224543,13.3008357 L70.4020888,13.3008357 L70.4020888,49.5821727 Z M107,34.2618384 L84.2310705,34.2618384 C84.2310705,38.9275766 87.0946475,42.3398329 92.1932115,42.3398329 C96.174282,42.3398329 98.1298956,41.2256267 100.434726,38.9275766 L105.95235,44.2896936 C102.250653,47.9805014 98.6886423,50 92.1233681,50 C83.5326371,50 75.2911227,46.1002786 75.2911227,31.4066852 C75.2911227,19.5682451 81.7167102,12.8830084 91.1455614,12.8830084 C101.272846,12.8830084 107,20.264624 107,30.2228412 L107,34.2618384 Z M98.0600522,28.0640669 C97.9902089,26.4623955 97.7806789,25.4874652 97.2219321,24.1643454 C96.2441253,22.005571 94.2186684,20.4038997 91.1455614,20.4038997 C88.0724543,20.4038997 86.0469974,22.005571 85.0691906,24.1643454 C84.5104439,25.4874652 84.3009138,26.4623955 84.2310705,28.0640669 L98.0600522,28.0640669 Z" id="Vue" fill="#35495E"></path>
                    <path d="M148.707096,15.4883721 C148.707096,23.9302326 142.557929,30.9767442 132.286025,30.9767442 L122.712889,30.9767442 L122.712889,49.6744186 L113,49.6744186 L113,0 L132.286025,0 C142.557929,0 148.707096,7.04651163 148.707096,15.4883721 Z M138.994207,15.4883721 C138.994207,11.4418605 136.199131,8.65116279 131.796886,8.65116279 L122.712889,8.65116279 L122.712889,22.255814 L131.796886,22.255814 C136.199131,22.255814 138.994207,19.5348837 138.994207,15.4883721 Z M181.898624,34.3255814 L159.118755,34.3255814 C159.118755,39 161.983707,42.4186047 167.084721,42.4186047 C171.067705,42.4186047 173.024258,41.3023256 175.330196,39 L180.850471,44.372093 C177.146995,48.0697674 173.583273,50.0930233 167.014844,50.0930233 C158.419986,50.0930233 150.174511,46.1860465 150.174511,31.4651163 C150.174511,19.6046512 156.603186,12.9069767 166.036568,12.9069767 C176.168718,12.9069767 181.898624,20.3023256 181.898624,30.2790698 L181.898624,34.3255814 Z M172.954381,28.1162791 C172.884504,26.5116279 172.674873,25.5348837 172.115858,24.2093023 C171.137581,22.0465116 169.111151,20.4418605 166.036568,20.4418605 C162.961984,20.4418605 160.935554,22.0465116 159.957277,24.2093023 C159.398262,25.5348837 159.188631,26.5116279 159.118755,28.1162791 L172.954381,28.1162791 Z M216.068429,31.4651163 C216.068429,38.0930233 215.229906,42.2093023 211.945692,45.627907 C209.709631,48 206.006155,50.0930233 200.625634,50.0930233 C195.245112,50.0930233 191.611513,48 189.375453,45.627907 C186.091238,42.2093023 185.252715,38.0930233 185.252715,31.4651163 C185.252715,24.9069767 186.091238,20.7906977 189.375453,17.372093 C191.611513,15 195.245112,12.9069767 200.625634,12.9069767 C206.006155,12.9069767 209.709631,15 211.945692,17.372093 C215.229906,20.7906977 216.068429,24.9069767 216.068429,31.4651163 Z M206.984432,31.4651163 C206.984432,27.6976744 206.774801,24.5581395 204.888125,22.6744186 C203.839971,21.627907 202.442433,21.0697674 200.625634,21.0697674 C198.808834,21.0697674 197.481173,21.627907 196.43302,22.6744186 C194.546343,24.5581395 194.336713,27.6976744 194.336713,31.4651163 C194.336713,35.2325581 194.546343,38.4418605 196.43302,40.3255814 C197.481173,41.372093 198.808834,41.9302326 200.625634,41.9302326 C202.442433,41.9302326 203.839971,41.372093 204.888125,40.3255814 C206.774801,38.4418605 206.984432,35.2325581 206.984432,31.4651163 Z M251.705648,31.4651163 C251.705648,36.9069767 251.635771,43.1860465 248.002172,46.8139535 C245.975742,48.8372093 242.691528,50.0930233 239.127806,50.0930233 C235.42433,50.0930233 232.699131,49.1162791 230.323316,46.4651163 L230.323316,63 L221.239319,63 L221.239319,13.3255814 L230.043809,13.3255814 L230.043809,16.744186 C232.559377,13.9534884 235.284576,12.9069767 239.127806,12.9069767 C242.691528,12.9069767 245.975742,14.1627907 248.002172,16.1860465 C251.635771,19.8139535 251.705648,26.0232558 251.705648,31.4651163 Z M242.621651,31.4651163 C242.621651,25.5348837 241.922882,21.0697674 236.472484,21.0697674 C231.022085,21.0697674 230.323316,25.5348837 230.323316,31.4651163 C230.323316,37.3953488 231.022085,41.9302326 236.472484,41.9302326 C241.922882,41.9302326 242.621651,37.3953488 242.621651,31.4651163 Z M272.319334,49.6744186 L267.148443,49.6744186 C259.671615,49.6744186 256.527154,44.4418605 256.527154,39.2790698 L256.527154,0 L265.611151,0 L265.611151,38.7209302 C265.611151,40.8837209 266.519551,42 268.825489,42 L272.319334,42 L272.319334,49.6744186 Z M306,34.3255814 L283.22013,34.3255814 C283.22013,39 286.085083,42.4186047 291.186097,42.4186047 C295.16908,42.4186047 297.125634,41.3023256 299.431571,39 L304.951846,44.372093 C301.248371,48.0697674 297.684649,50.0930233 291.11622,50.0930233 C282.521361,50.0930233 274.275887,46.1860465 274.275887,31.4651163 C274.275887,19.6046512 280.704562,12.9069767 290.137944,12.9069767 C300.270094,12.9069767 306,20.3023256 306,30.2790698 L306,34.3255814 Z M297.055757,28.1162791 C296.98588,26.5116279 296.776249,25.5348837 296.217234,24.2093023 C295.238957,22.0465116 293.212527,20.4418605 290.137944,20.4418605 C287.06336,20.4418605 285.03693,22.0465116 284.058653,24.2093023 C283.499638,25.5348837 283.290007,26.5116279 283.22013,28.1162791 L297.055757,28.1162791 Z" id="People" fill="#42B883"></path>
                </g>
            </g>
        </g>
    </g>
</svg>

<?xml version="1.0" encoding="UTF-8"?>
<svg version="1.1" viewBox="0 0 306 277" xmlns="http://www.w3.org/2000/svg" xmlns:xlink="http://www.w3.org/1999/xlink">
<title>Vertical</title>
<desc>Created with Sketch.</desc>
<defs>
<polygon id="a" points="73.49 169.09 53.065 133.71 32.64 169.09 0 169.09 53.065 77.153 106.13 169.09"/>
<filter id="b" x="0%" y="0%" width="100%" height="100%">
<feOffset dx="0" dy="0" in="SourceAlpha" result="shadowOffsetOuter1"/>
<feColorMatrix in="shadowOffsetOuter1" values="0 0 0 0 0   0 0 0 0 0   0 0 0 0 0  0 0 0 0.5 0"/>
</filter>
</defs>
<g fill="none" fill-rule="evenodd">
<g transform="translate(-359 -732)">
<g transform="translate(359 731)">
<g transform="translate(64)" fill-rule="nonzero">
<g transform="translate(0 55)">
<ellipse cx="33.395" cy="21.325" rx="20.958" ry="20.933" fill="#4A90E2"/>
<path d="m52.553 62.861l14.264-14.287v14.287h-14.264zm-22.353 52.639h-30.2v-66.926l30.2 30.25v36.676z" fill="#4A90E2"/>
<path d="m30.2 65.295v35.604l-30.2-52.326h20.549l9.651 16.722zm7.8209-2.4347l8.2458-14.287h20.549l-8.2459 14.287h-20.549z" fill="#3A71B0"/>
</g>
<g transform="translate(113 55)">
<ellipse cx="33.395" cy="21.325" rx="20.958" ry="20.933" fill="#FB8D20"/>
<path d="m36.2 79.24l30.616-30.666v66.926h-30.616v-36.26zm-36.2-16.379v-14.287l14.264 14.287h-14.264z" fill="#FB8D20"/>
<path d="m28.795 62.861h-20.549l-8.2459-14.287h20.549l8.2458 14.287zm7.4052 3.155l10.067-17.442h20.549l-30.616 53.046v-35.604z" fill="#C7701A"/>
</g>
<g transform="translate(36.636 .90196)">
<ellipse cx="53.043" cy="33.872" rx="33.289" ry="33.249" fill="#4DBA87"/>
<polygon points="53.065 130.31 0 77.153 0 183.46 106.13 183.46 106.13 77.153" fill="#42B883"/>
<g transform="translate(53.065 123.12) rotate(180) translate(-53.065 -123.12)">
<use fill="black" filter="url(#b)" xlink:href="#a"/>
<use fill="#435466" fill-rule="evenodd" xlink:href="#a"/>
</g>
</g>
</g>
<g transform="translate(0 215)">
<path d="m40.16 0l-16.483 49.582h-7.2637l-16.413-49.582h10.057l9.9876 32.312 9.9876-32.312h10.127zm30.242 49.582h-8.8701v-3.3426c-2.3747 2.507-5.7272 3.7604-9.0796 3.7604-3.6319 0-6.5653-1.1838-8.5907-3.2033-2.9334-2.9248-3.7017-6.337-3.7017-10.306v-23.189h9.0796v21.936c0 4.9443 3.143 6.6156 6.0065 6.6156 2.8636 0 6.0764-1.6713 6.0764-6.6156v-21.936h9.0796v36.281zm36.598-15.32h-22.769c0 4.6657 2.8636 8.078 7.9621 8.078 3.9811 0 5.9367-1.1142 8.2415-3.4123l5.5176 5.3621c-3.7017 3.6908-7.2637 5.7103-13.829 5.7103-8.5907 0-16.832-3.8997-16.832-18.593 0-11.838 6.4256-18.524 15.854-18.524 10.127 0 15.854 7.3816 15.854 17.34v4.039zm-8.9399-6.1978c-0.069843-1.6017-0.27937-2.5766-0.83812-3.8997-0.97781-2.1588-3.0033-3.7604-6.0764-3.7604-3.0731 0-5.0986 1.6017-6.0764 3.7604-0.55875 1.3231-0.76828 2.2981-0.83812 3.8997h13.829z" fill="#35495E"/>
<path d="m148.71 15.488c0 8.4419-6.1492 15.488-16.421 15.488h-9.5731v18.698h-9.7129v-49.674h19.286c10.272 0 16.421 7.0465 16.421 15.488zm-9.7129 0c0-4.0465-2.7951-6.8372-7.1973-6.8372h-9.084v13.605h9.084c4.4022 0 7.1973-2.7209 7.1973-6.7674zm42.904 18.837h-22.78c0 4.6744 2.865 8.093 7.966 8.093 3.983 0 5.9395-1.1163 8.2455-3.4186l5.5203 5.3721c-3.7035 3.6977-7.2672 5.7209-13.836 5.7209-8.5949 0-16.84-3.907-16.84-18.628 0-11.86 6.4287-18.558 15.862-18.558 10.132 0 15.862 7.3953 15.862 17.372v4.0465zm-8.9442-6.2093c-0.069877-1.6047-0.27951-2.5814-0.83852-3.907-0.97828-2.1628-3.0047-3.7674-6.0793-3.7674-3.0746 0-5.101 1.6047-6.0793 3.7674-0.55902 1.3256-0.76865 2.3023-0.83852 3.907h13.836zm43.114 3.3488c0 6.6279-0.83852 10.744-4.1227 14.163-2.2361 2.3721-5.9395 4.4651-11.32 4.4651-5.3805 0-9.0141-2.093-11.25-4.4651-3.2842-3.4186-4.1227-7.5349-4.1227-14.163 0-6.5581 0.83852-10.674 4.1227-14.093 2.2361-2.3721 5.8697-4.4651 11.25-4.4651 5.3805 0 9.084 2.093 11.32 4.4651 3.2842 3.4186 4.1227 7.5349 4.1227 14.093zm-9.084 0c0-3.7674-0.20963-6.907-2.0963-8.7907-1.0482-1.0465-2.4457-1.6047-4.2625-1.6047-1.8168 0-3.1445 0.55814-4.1926 1.6047-1.8867 1.8837-2.0963 5.0233-2.0963 8.7907 0 3.7674 0.20963 6.9767 2.0963 8.8605 1.0482 1.0465 2.3758 1.6047 4.1926 1.6047 1.8168 0 3.2143-0.55814 4.2625-1.6047 1.8867-1.8837 2.0963-5.093 2.0963-8.8605zm44.721 0c0 5.4419-0.069877 11.721-3.7035 15.349-2.0264 2.0233-5.3106 3.2791-8.8744 3.2791-3.7035 0-6.4287-0.97674-8.8045-3.6279v16.535h-9.084v-49.674h8.8045v3.4186c2.5156-2.7907 5.2408-3.8372 9.084-3.8372 3.5637 0 6.8479 1.2558 8.8744 3.2791 3.6336 3.6279 3.7035 9.8372 3.7035 15.279zm-9.084 0c0-5.9302-0.69877-10.395-6.1492-10.395-5.4504 0-6.1492 4.4651-6.1492 10.395 0 5.9302 0.69877 10.465 6.1492 10.465 5.4504 0 6.1492-4.5349 6.1492-10.465zm29.698 18.209h-5.1709c-7.4768 0-10.621-5.2326-10.621-10.395v-39.279h9.084v38.721c0 2.1628 0.9084 3.2791 3.2143 3.2791h3.4938v7.6744zm33.681-15.349h-22.78c0 4.6744 2.865 8.093 7.966 8.093 3.983 0 5.9395-1.1163 8.2455-3.4186l5.5203 5.3721c-3.7035 3.6977-7.2672 5.7209-13.836 5.7209-8.5949 0-16.84-3.907-16.84-18.628 0-11.86 6.4287-18.558 15.862-18.558 10.132 0 15.862 7.3953 15.862 17.372v4.0465zm-8.9442-6.2093c-0.069877-1.6047-0.27951-2.5814-0.83852-3.907-0.97828-2.1628-3.0047-3.7674-6.0793-3.7674-3.0746 0-5.101 1.6047-6.0793 3.7674-0.55902 1.3256-0.76865 2.3023-0.83852 3.907h13.836z" fill="#42B883"/>
</g>
</g>
</g>
</g>
</svg>
